X: 1158
T: Michelle Ferreilles
B: ralph
B: steve tunes
M:4/4
L:1/8
Q: 1/4=120
K:Em
V:1 
|:"Em"E2EGBGAG|EGBG AGED|"Bm"B,2B,D FDED|B,D (3FFF dBAF|
"Em"E2EG BGAG|EGBG EFGA|"Bm"ddBd FdBe|gfed BAGF:|
|:"Em"e2ge aege|(3eee ge "D"agfd|"Em"e2ge aege|"D"f2fgfedB|
|1"Em"(3eee ge aege|e2ge "D"agfd|"Bm"b3b bage|f2fg fedB:|
|2"Em"Bege Bege|"C"cege cege|"Em"efga bagf|"Bm"(3fgf ed "Em"e2AG||
W: 
% abcbook-tune_id 62a420d1319f9f94b8fcc60d


% abcbook-boost 0
% abcbook-tablature 
% abcbook-transpose 
% abcbook-lastupdated 1654961986125
% abcbook-soundfonts 
% abcbook-repeats 3


